%
O00913 (Macro: Single Blade Clamp Op2 1IN TRIM)

(~~~~~~~~~ SETUP ~~~~~~~~~)
(FIRST THRU HOLE X LOC:)
#850= .875
(FIRST THRU HOLE Y LOC:)
#851= .790
(FLAT BOTTOM HOLE Y LOC:)
#855= .730
(SPREAD DISTANCE:)
#852= 5.9371
(FINISH LENGTH:)
#853= 43.310
(ORIENT WITH RADIUS HEEL FACING)
(UP AND TOWARDS OPERATOR)

(ENGRAVING TEXT:)
( SEQUENCE SEARCH TO LINE N47)
( CHANGE LETTERING IN COMMENT)

(~~~~~~~~~ TOOLS ~~~~~~~~~)
( T1: 1/2" DOWEL PIN)
( T5: 3/4" x 90 DEG CSINK)
(T21: 1/4" CARBIDE 3FLT ENDMILL)
(T25: 1/2" CARBIDE 3FLT ENDMILL)
(T28: 1/16" CARBIDE BALL ENGRAVER)

(~~~~~~~~~ ZEROS ~~~~~~~~~)
( G55 )
(X0 - RHS OF FIXTURE, +1/4" TO AVOID MILLING FIXTURE)
(Y0 - BACK RAIL OF FIXTURE)
(Z0 - TOP OF FLAT MATERIAL, NOT RADIUS)





(~~~~~~~~~ BEGIN ~~~~~~~~~)
T1 M06 (1/2" DOWEL PIN)
M01 (1/2" DOWEL PIN)
G00 G90 G55 X-[ #853 + .25 ] Y-.5
G43 H1 Z1. T25
G01 Z-0.1 F20.
M00 (STOP MATERIAL TO PIN)
G00 Z1.
G91 G28 Z0.
( !! TAP DOWN PART !!)
G00 G90 G55 X0.
G00 G90 G53 Y0.
M01

T25 M06 (1/2" CARBIDE 3FLT ENDMILL)
M01 (1/2" CARBIDE 3FLT ENDMILL)
G00 G90 G55 X.25 Y.4
S7500 M03
G43 H25 Z1. T21
M08
G00 Z.1
G01 Z-.4 F20.
G01 Y-1.4
G00 Z1.
G00 X.35 Y-.75
G01 Z-.05 F50.
G01 X-[#853 + .35]
G01 Y-.35
G01 X.35
G00 Z1.
M09
M05
G91 G28 Z0.
M01

T21 M06 (1/4" CARBIDE 3FLT ENDMILL)
M01 (1/4" CARBIDE 3FLT ENDMILL)
M97 P1000 (CALCULATE NUM_OF_SPACES)
G00 G90 G55 X-[ #850 + 1.0 ] Y-#855
S3200 M03
G43 H21 Z1. T5
M08
G0 Z.1
#600=0
G73 G99 R0.1 Z-0.2 Q0.05 F15.
N101 #600= [ #600 + 1 ]
G91 X-[ #852 - 2.0 ]
G91 X-2.
IF [ #600 LT [ #856 - 1 ]] GOTO101
G91 X-[ #852 - 2.0 ]
G80
G00 Z1.
M09
M05
G91 G28 Z0.
M01

G00 G17 G20 G40 G49 G80 G90
T5 M06 (3/4" x 90 DEG CSINK)
M01 (3/4" x 90 DEG CSINK)
M97 P1000 (CALCULATE NUM_OF_SPACES)
G00 G90 G55 X-#850 Y-#851
S4000 M03
G43 H5 Z1. T28
M08
#600=0
G81 G99 R.1 Z-.19 F50.
N201 #600= [ #600 + 1 ]
G91 X-1. Y[ #851 - #855 ]
G91 X-[ #852 - 2.0 ]
G91 X-1. Y-[ #851 - #855 ]
IF [ #600 LT [ #856 - 1 ]] GOTO201
G91 X-1. Y[ #851 - #855 ]
G91 X-[ #852 - 2.0 ]
G91 X-1. Y-[ #851 - #855 ]
G80
M09
M05
G91 G28 Z0.
M01

T28 M06 (1/16" CARBIDE BALL ENGRAVER)
M01 (1/16" CARBIDE BALL ENGRAVER)
( X=1ST THRU HOLE + #)
( Y=BLIND HOLE Y)
G00 G90 G55 X-[ #850 + 2.0 ] Y-#855
S7500 M03
G43 H28 Z1. T1
M08
G0 Z.1
N47 G47 P0 I180. J0.14 R0.03 Z-0.055 F20. (HB480-12.9M)
G00 Z1.
M09
M05
G91 G28 Z0.
( CENTER AND PRESENT TO OPERATOR )
G00 G90 G53 X-[ #853 / 2 ] Y0.
T1 M6
M30


N1000 (CALCULATE NUM_OF_SPACES)
#856= FIX[ #853 / #852 ]
M99

(~~~~~~~~~ CHANGELOG ~~~~~~~~~)
(11/15/2018 KKH - INITIAL PROGRAM)
(11/16/2018 KKH - PART CENTERING AND PRESENTING)
(11/16/2018 KKH - OP2 IS NOW G55)
(11/16/2018 KKH - REMOVING C'SINK Z DEPTHS, G91 AFFECTING)
%
