%
O00901 (Macro: Blade Clamps Op1)


(~~~~~~~~~ SETUP ~~~~~~~~~)
(FIRST THRU HOLE X LOC:)
#850= 0.875
(FIRST THRU HOLE Y LOC:)
#851= 0.790
(SPREAD DISTANCE:)
#852= 5.9371
(FINISH LENGTH:)
#853= 43.310

(LIMIT TO NUM OF BLADE CLAMPS)
( #865= 0 FOR AUTOMATIC)
#865= 1

(~~~~~~~~~ TOOLS ~~~~~~~~~)
(T26: DRILL & CSINK COMBO)
(T21: 1/4" CARBIDE 3FLT ENDMILL)


(THERES NO G10 LINE USE G154 P1)

(~~~~~~~~~ BEGIN ~~~~~~~~~)
G00 G17 G20 G40 G49 G80 G90
M97 P1000 (CALCULATIONS)
T26 M06 (DRILL & CSINK COMBO)
M01 (DRILL & CSINK COMBO)
G00 G90 G154 P1 X-#850 Y-#851
S2300 M03
G43 H26 Z1. T21 M08
(INIT COUNTER:)
#600= 1
WHILE [ #600 LE #860 ] DO1
G00 G90 G54 P1 X-#850 Y-#851
G81 G98 R0.1 Z-0.407 F10.
G91 X-#852 L#856
G80
M97 P1001 (G52 AND INCREMENT)
END1
G00 Z1. M09
M05
G91 G28 Z0.
M01


G00 G17 G20 G40 G49 G80 G90
M97 P1000 (CALCULATIONS)
T21 M06 (1/4" CARBIDE 3FLT ENDMILL)
M01 (1/4" CARBIDE 3FLT ENDMILL)
G52 X#861
G00 G90 G154 P1 X-0.126 Y-1.25
S7500 M03
G43 H21 Z1. T26 M08
(INIT COUNTER:)
#600= 1
WHILE [ #600 LE #860 ] DO2
G00 G90 G54 P1 X-0.126 Y-1.25
G00 Z0.1
G01 Z0. F20.
G01 Y0.05 Z-0.075
G01 Y-1.25 Z-0.15
G01 Y0.05 Z-0.225
G01 Y-1.25 Z-0.35
G01 X-0.125
G01 Y0.05
G00 Z1.
G00 G91 X[ #853 + 0.251 ]
G00 G90 Y0.05
G00 Z1.
G00 Z0.1
G01 Z0. F20.
G01 Y-1.25 Z-0.075
G01 Y0.05 Z-0.15
G01 Y-1.25 Z-0.225
G01 Y0.05 Z-0.35
G01 G91 X-0.001
G01 G90 Y-1.25
G00 Z1.
M97 P2001 (G52 AND INCREMENT)
END2
M09
M05
G91 G28 Z0.
M01
G00 G90 G53 X-30. Y0.
T26 M06
M30





N1000 (CALCULATIONS)
(NUMBER OF SPACES)
#856= FIX[[ #853 / #852 ]]

(TOTAL NUM OF BLADES:)
IF [ #865 EQ 0 ] THEN #860= FIX[ 108 / [ #853 + 0.28 ]]
IF [ #865 NE 0 ] THEN #860= FIX[ #865 ]

(FURTHEST EDGE:)
#861= -[[ #853 * #860 ] + [ 0.28 * [ #860 - 1 ]]]
M99


(LEFT)
N1001 (G52 AND INCREMENT)
G52 X-[[ #853 + 0.28 ] * #600 ]
(COUNTER:)
#600= [ #600 + 1 ]
M99


(RIGHT)
N2001 (G52 AND INCREMENT)
G52 X[ #861 + [ [ #853 + 0.28 ] * #600 ]]
(COUNTER:)
#600= [ #600 + 1 ]
M99


N99



(~~~~~~~~~ CHANGELOG ~~~~~~~~~)
(12.12.12 KKH - 2 BLADE FIX)
(6.20.13 KKH - ADDED B.C. LIMIT)
(12.6.13 KKH - MODIFIED G10 LINE)
%
